!!!COM: Mozart, Wolfgang Amadeus
!!!CDT: 1756/01/27/-1791/12/05/
!!!CNT: German
!!!OTL: Piano Sonata No. 11 in A major
!!!SCT1: K<sup>1</sup> 331
!!!SCT2: K<sup>6</sup> 300i
!!!OMV: 1g
!!!OMD: Variation V: Allegro
!!!ODT: 1778-1873///
**kern	**kern	**dynam
*staff2	*staff1	*staff1/2
*>[A,A,B,B]	*>[A,A,B,B]	*>[A,A,B,B]
*>norep[A,B]	*>norep[A,B]	*>norep[A,B]
*>A	*>A	*>A
*clefF4	*clefG2	*clefG2
*k[f#c#g#]	*k[f#c#g#]	*k[f#c#g#]
*A:	*A:	*A:
*M4/4	*M4/4	*M4/4
*met(c)	*met(c)	*met(c)
=1-	=1-	=1-
!LO:TX:i:t=legato	!	!
8AL	8cc#'L	p
.	(32ddqq	.
8e	()16cc#L	.
.	16bJJ	.
8B	8cc#L)	.
8eJ	8dd'J	.
8c#L	(8ff#L	.
8e	8ee)	.
8A	8dd'	.
8eJ	8cc#'J	.
=2	=2	=2
8G#L	8b'L<	.
.	(32cc#qq	.
8e	()16bL	.
.	16a#JJ	.
8A	8bL)	.
8eJ	8cc#'J	.
8BL	(8eeL	.
8e	8dd)	.
8d	8cc#'	.
8eJ	8b'J	.
=3	=3	=3
8c#L	(8g#L	.
8e	8anJ)	.
8c#	8r	.
8eJ	8a#	.
8G#L	8r	.
8e	8b	.
8G#	8r	.
8eJ	8b#	.
=4	=4	=4
*^	*	*
.	.	(32ddqq	.
2ryy	8AL	8cc#'L)	.
.	8e	8cc#'	.
.	.	(32eeqq	.
.	8D	8dd')	.
.	8BJ	8dd'J	.
(4A	4.E	(4cc#	.
8G#)	.	8bn)	.
8r	8r	8r	.
*v	*v	*	*
=5	=5	=5
4AAA 4CC# 4EE 4AA	16cc#LL	f
.	(16a	.
.	16e	.
.	16aJJ	.
4r	16cc#LL	.
.	16a	.
.	16dd	.
.	16bJJ	.
*clefG2	*	*
4A 4c# 4e 4a	16eeLL	.
.	16cc#	.
.	16ee	.
.	16cc#JJ	.
4r	16ff#LL	.
.	16ee	.
.	16dd	.
.	16cc#JJ	.
*clefF4	*	*
=6	=6	=6
4EE 4GG# 4BB 4E	16bLL	.
.	16g#	.
.	16e	.
.	16g#JJ	.
4r	16bLL	.
.	16g#	.
.	16cc#	.
.	16aJJ	.
4E 4G# 4B 4e	16ddLL	.
.	16b	.
.	16dd	.
.	16bJJ	.
4r	16eeLL	.
.	16dd	.
.	16cc#	.
.	16bJJ	.
=7	=7	=7
8FF#L	16aLL	.
.	16cc#	.
8F#	16b	.
.	16aJJ	.
8GG#	16bLL	.
.	16dd	.
8G#J	16cc#	.
.	16bJJ	.
8AL	16cc#LL	.
.	16ee	.
8c#	16aa	.
.	16eeJJ	.
8d	16ff#LL	.
.	16aa	.
8G#J	16b	.
.	16ddJJ	.
=8	=8	=8
8AL	16cc#LL	.
.	16ee	.
8F#	16a	.
.	16cc#JJ	.
8D	16bLL	.
.	16dd	.
8EJ	16g#	.
.	16bJJ	.
4AA	16aLL	.
.	16e	.
.	16c#	.
.	16eJJ)	.
4AAA	4a	.
=9:|!|:	=9:|!|:	=9:|!|:
*>B	*>B	*>B
(8AL	(16aLL	p
.	16b	.
8e	16cc#	.
.	16ddJJ	.
8c#	16eeLL	.
.	16ff#	.
8eJ	16gg#	.
.	16aaJJ	.
8AL	16gg#LL	.
.	16ff#	.
8f#	16ee#	.
.	16ff#JJ	.
8d	16ee#LL	.
.	16ff#	.
8f#J	16ee#	.
.	16ff#JJ	.
=10	=10	=10
8AL	16aaLL	.
.	16gg#	.
8f#	16aa	.
.	16gg#JJ	.
8d	16bbLL	.
.	16aa	.
8f#J	16gg#	.
.	16ff#JJ)	.
8AL	(16ff#LL	.
.	16een	.
8e	16dd#	.
.	16eeJJ	.
8c#	16dd#LL	.
.	16ee	.
8eJ)	16dd#	.
.	16eeJJ)	.
=11	=11	=11
4AA 4C# 4E 4A	(16eeLL	f
.	16aa	.
.	16ccc#	.
.	16bbJJ	.
4r	16aaLL	.
.	16gg#	.
.	16ff#	.
.	16eeJJ	.
4BB 4D 4G# 4B	16ddnLL	.
.	16gg#	.
.	16bb	.
.	16aaJJ	.
4r	16gg#LL	.
.	16ff#	.
.	16ee	.
.	16ddJJ	.
=12	=12	=12
4C# 4E 4A 4c#	16cc#LL	.
.	16ee	.
.	16aa	.
.	16gg#JJ	.
4D 4F# 4B 4d	16ff#LL	.
.	16ee	.
.	16dd	.
.	16cc#JJ	.
4E 4G# 4B 4e	16bLL	.
.	16a	.
.	16g#	.
.	16f#JJ	.
16r	16e)	.
(16dLL	16r	.
16c#	8r	.
16BJJ	.	.
=13	=13	=13
8AL	8cc#'L	p
.	(32ddqq	.
8e	()16cc#L	.
.	16bJJ	.
8B	8cc#L	.
8eJ	8dd'J)	.
8c#L	(8ff#L	.
8e	8ee)	.
8A	8dd'	.
8eJ	8cc#'J	.
=14	=14	=14
8G#L	8b'L<	.
.	(32cc#qq	.
8e	()16bL	.
.	16a#JJ	.
8A	8bL)	.
8eJ	8cc#'J	.
8BL	(8eeL	.
8e	8dd)	.
8G#	8cc#'	.
8eJ	8b'J	.
=15	=15	=15
8F#L	(8g#L	.
8e	8anJ)	.
8G#	8r	.
8eJ	8b	.
8AL	8r	.
.	(32b#qq	.
8e	8cc#)	.
8D	8r	.
.	(32eeqq	.
8BJ	8dd)	.
=16	=16	=16
*	*^	*
8EL	2ryy	8r	.
.	.	(32ddqq	.
8A	.	8cc#)	.
8E	.	8r	.
.	.	(32cc#qq	.
8G#J)	.	8bn)	.
[4A 4d [4e	(8bL	4g#	.
.	8b#J	.	.
8A] 8c# 8e]	8cc#)	8a)	.
8r	8r	8r	.
*	*v	*v	*
=17	=17	=17
16AALL	(16cc#LL	f
16C#	16a	.
16E	16ee	.
16AJJ	16cc#JJ	.
16BBLL	16ddLL	.
16D	16b	.
16G#	16ff#	.
16BJJ	16ddJJ	.
16C#LL	16eeLL	.
16E	16cc#	.
16A	16aa	.
16c#JJ	16eeJJ	.
16DLL	16gg#LL	.
16F#	16ff#	.
16B	16ee	.
16dJJ	16ddJJ	.
=18	=18	=18
16ELL	16cc#LL	.
16A	16ee	.
16c#	16a	.
16eJJ	16cc#JJ	.
16EELL	16bLL	.
16GG#	16dd	.
16BB	16g#	.
16EJJ	16bJJ	.
16AALL	16aLL	.
16C#	16e	.
16E	16c#	.
16AJJ	16eJJ	.
4AA	4a)	.
=19:|!	=19:|!	=19:|!
16ELL	16cc#LL	.
16A	(16ee	.
16c#	16a	.
16eJJ	16cc#JJ	.
16ELL	16bLL	.
16G#	16dd	.
16B	16g#	.
16dJJ	16bJJ	>
8A 8c#L	16aLL	.
.	16b	.
8c# 8e	16cc#	.
.	16ddJJ	.
8c# 8e	16eeLL	.
.	16ff#	.
8c# 8eJ	16gg#	.
.	16aaJJ	.
=20	=20	=20
8AL	16gg#LL	p
.	16ff#	.
8d 8f#	16ee#	.
.	16ff#JJ	.
8d 8f#	16bbLL	.
.	16aa)	.
8d 8f#J	16gg#'	.
.	16ff#'JJ	.
8AL	(16ff#LL	.
.	16een	.
8c# 8e	16dd#	.
.	16eeJJ	.
8c# 8e	16aLL	.
.	16cc#	.
8c# 8eJ	16ee	.
.	16aaJJ	.
=21	=21	=21
8AL	16gg#LL	.
.	16ff#	.
8d 8f#	16ee#	.
.	16ff#JJ	.
8d 8f#	16bbLL	.
.	16aa)	.
8d 8f#J	16gg#'	.
.	16ff#'JJ	.
4A 4c# 4e	8.eenL	.
.	16ee'Jk	.
.	32ff#qLLL	.
.	32eeq	.
.	32dd#qJJJ	.
4r	4ee	.
=22	=22	=22
4D 4B	8r	.
.	16r	.
.	16ddn'	.
.	32eeqLLL	.
.	32ddq	.
.	32cc#qJJJ	.
4r	4dd	.
4E 4A	8r	.
.	16r	.
.	16cc#'	.
.	(32ddqLLL	.
.	32cc#q	.
.	32bqJJJ	.
4r	4cc#)	.
=23	=23	=23
4D 4G#	8r	.
.	16r	.
.	16b'	.
.	32cc#qLLL	.
.	32bq	.
.	32a#qJJJ	.
4r	4b	f
4C# 4A	16r	.
.	(16eeLL	.
.	16dd#	.
.	16eeJJ	.
4r	16ff#LL	.
.	16ee	.
.	16dd#	.
.	16eeJJ)	.
=24	=24	=24
4D 4B	16r	.
.	(16ddnLL	.
.	16cc#	.
.	16ddJJ	.
4r	16eeLL	.
.	16dd	.
.	16cc#	.
.	16ddJJ)	.
4E 4A	16r	.
.	(16cc#LL	.
.	16b#	.
.	16cc#JJ	.
4r	16ddLL	.
.	16cc#	.
.	16b#	.
.	16cc#JJ)	.
=25	=25	=25
4E 4G#	16r	.
.	(16bnLL	.
.	16a#	.
.	16bJJ	.
4r	16cc#LL	.
.	16b	.
.	16a#	.
.	16bJJ	.
4A	8an)	.
.	(16cc#LL	p
.	16aJJ	.
4r	16eeLL	.
.	16dd	.
.	16b	.
.	16g#JJ	.
=26	=26	=26
4r	4a)	.
4E 4G# 4B 4e	4g# 4b 4ee	f
4AA 4C# 4E 4A	8a 8cc# 8ee 8aa	.
.	(16cc#LL	p
.	16aJJ	.
4r	16eeLL	.
.	16dd	.
.	16b	.
.	16g#JJ	.
=27	=27	=27
4r	4a)	.
4E 4G# 4B 4e	4g# 4b 4ee	f
4AA 4C# 4E 4A	4a 4cc# 4ee 4aa	.
4r	4r	.
==	==	==
*-	*-	*-
!!!RDF**kern: > = above
!!!RDF**kern: < = below
!!!YOR: Alte Mozart-Ausgabe, Band 20, Breitkopf &amp; H&auml;rtel 1877-1883.
!!!YOY: 1878
!!!YEC: 2018 Craig Stuart Sapp
!!!YEM: Licence: (CC BY-NC-SA 4.0) https://creativecommons.org/licenses/by-nc-sa/4.0
!!!YER: 2018
!!!ENC: Craig Stuart Sapp
!!!END: 2009/09/29
!!!EED: Craig Stuart Sapp
!!!EEV: 2018/06/17
!!!EFL: 49/69
!!!AGN: piano sonata
!!!AFR: theme and variations
!!!title: @{OTL}, K 331 (300i), mvmt. @{OMV}
